X:1
T:Goshen (Davis), 11.11 D
T:Goshen (Davis), 11.11 D
T:Marchel Davis, 1847
T:Public Domain Courtesy of the Cyber Hymnal™
C:Marchel Davis, 1847
Z:Public Domain
Z:Courtesy of the Cyber Hymnal™
%%score ( 1 2 ) ( 3 4 )
L:1/8
Q:1/4=112
M:4/4
K:Bb
V:1 treble 
V:2 treble 
V:3 bass 
V:4 bass 
V:1
 [DB]3 [DB] [FA]2 [EG]2 | [DF]4 [B,D]4 | [DF]2 [Fd]2 [Ec]2 [=EB]2 | [Fc]8 | %4
 [DB]3 [DB] [EA]2 [EG]2 | [DF]4 [B,D]4 | [DF]2 [B,F]2 [Fd]2 [Ec]2 | [DB]8 | %8
 [Fc]2 [Fc]2 [Gc]2 [Fd]2 | [Ee]4 [Fc]4 | [Fd]2 [FB]2 [FG]2 [=Ec]2 x | F8 | [DB]3 [DB] [FA]2 [EG]2 | %13
 [DF]4 [B,D]4 | [DF]2 [B,F]2 [Fd]2 [Ec]2 | [DB]8 |] %16
V:2
 x8 | x8 | x8 | x8 | x8 | x8 | x8 | x8 | x8 | x8 | x9 | F8 | x8 | x8 | x8 | x8 |] %16
V:3
 [B,,F,]3 [B,,F,] [B,,D,]2 [B,,E,]2 | [B,,F,]4 [B,,F,]4 | [B,,B,]2 [B,,F,]2 [E,G,]2 [G,B,]2 | %3
 [F,A,]8 | [B,,F,]3 [B,,F,] [B,,E,]2 [B,,G,]2 | [B,,B,]4 [B,,F,]4 | %6
 [B,,F,]2 [D,F,]2 [F,B,]2 [F,A,]2 | [B,,B,]8 | [F,A,]2 [F,A,]2 [E,G,]2 [D,=B,]2 | [C,C]4 [F,A,]4 | %10
 [B,,B,]2 [G,,D]2 C3 z B, | [F,A,]8 | [B,,F,]3 [B,,F,] [B,,D,]2 [B,,E,]2 | [B,,F,]4 [B,,F,]4 | %14
 [B,,F,]2 [D,F,]2 [F,B,]2 [F,A,]2 | [B,,B,]8 |] %16
V:4
 x8 | x8 | x8 | x8 | x8 | x8 | x8 | x8 | x8 | x8 | x4 C,2 C,2 x | x8 | x8 | x8 | x8 | x8 |] %16

